images/icons/PBS-info.svg

<?xml version="1.0" encoding="UTF-8" standalone="no"?>
<svg width="256px" height="256px" viewBox="0 0 256 256" version="1.1" xmlns="http://www.w3.org/2000/svg" xmlns:xlink="http://www.w3.org/1999/xlink">
    <!-- Generator: Sketch 39.1 (31720) - http://www.bohemiancoding.com/sketch -->
    <title>PBS-info</title>
    <desc>Created with Sketch.</desc>
    <defs></defs>
    <g id="Page-1" stroke="none" stroke-width="1" fill="none" fill-rule="evenodd">
        <g id="PBS-info" fill="#1A1A1A">
            <path d="M114.116759,178.845417 C108.523759,178.845417 104.129259,175.249917 108.124259,160.068917 L114.516259,132.902918 C115.714759,128.508418 115.714759,126.910419 114.516259,126.910419 C112.918259,126.910419 105.327759,130.106418 100.933259,132.902918 L98.1367593,128.108918 C112.119259,116.523419 128.099258,109.731919 134.890758,109.731919 C140.483758,109.731919 141.682258,116.523419 138.885758,126.910419 L131.295258,155.274917 C130.096758,160.468417 130.496258,162.066417 131.694758,162.066417 C133.292758,162.066417 138.885758,160.068917 144.478758,155.674417 L147.674757,160.068917 C134.491258,173.651917 119.709758,178.845417 114.116759,178.845417 M135.689758,72.1789206 C144.079258,72.1789206 146.476257,76.9729204 146.476257,82.5659202 C146.476257,89.3574199 140.883258,95.7494197 131.295258,95.7494197 C123.305258,95.7494197 119.709758,91.7544198 119.709758,85.3624201 C120.109258,80.1689203 124.503758,72.1789206 135.689758,72.1789206 M45.0032612,128.508418 C45.8022612,174.051417 82.9557598,210.405915 128.498758,210.006415 C174.041756,209.207415 210.396255,172.053917 209.996755,126.510919 C209.597255,80.5684203 172.044257,44.2139216 126.501258,45.0129216 C80.9582599,45.8119215 44.6037612,82.9654202 45.0032612,128.508418 Z" id="Fill-1"></path>
        </g>
    </g>
</svg>

<svg width="256" height="256" viewBox="0 0 256 256" xmlns="http://www.w3.org/2000/svg"><title>PBS-info</title><path d="M114.117 178.845c-5.593 0-9.988-3.595-5.993-18.776l6.392-27.166c1.199-4.395 1.199-5.993 0-5.993-1.598 0-9.188 3.196-13.583 5.993l-2.796-4.794c13.982-11.586 29.962-18.377 36.754-18.377 5.593 0 6.791 6.791 3.995 17.178l-7.59 28.365c-1.2 5.193-.8 6.791.399 6.791 1.598 0 7.19-1.997 12.784-6.392l3.196 4.395c-13.184 13.583-27.965 18.776-33.558 18.776M135.69 72.18c8.39 0 10.786 4.794 10.786 10.387 0 6.791-5.593 13.183-15.18 13.183-7.99 0-11.586-3.995-11.586-10.387.4-5.193 4.794-13.183 15.98-13.183m-90.687 56.33c.8 45.542 37.953 81.897 83.496 81.497 45.543-.799 81.897-37.952 81.498-83.495-.4-45.943-37.953-82.297-83.496-81.498-45.543.799-81.897 37.952-81.498 83.495z" fill="#1A1A1A" fill-rule="evenodd"/></svg>
